assets/icons/24px/stroke/chevron-double-left-24px.svg

<svg width="24" height="24" viewBox="0 0 24 24" fill="none" xmlns="http://www.w3.org/2000/svg">
<path fill-rule="evenodd" clip-rule="evenodd" d="M6.12345 12.6183C6.40652 12.9893 6.84888 13.4347 7.53553 14.1213L12.7071 19.2929C13.0976 19.6834 13.0976 20.3166 12.7071 20.7071C12.3166 21.0976 11.6834 21.0976 11.2929 20.7071L6.12132 15.5355C6.10575 15.52 6.09023 15.5044 6.07477 15.489C5.44789 14.8622 4.90777 14.3221 4.53341 13.8315C4.13221 13.3056 3.82843 12.7208 3.82843 12C3.82843 11.2792 4.13221 10.6944 4.53341 10.1685C4.90777 9.67789 5.4479 9.13781 6.07478 8.51101L11.2929 3.29289C11.6834 2.90237 12.3166 2.90237 12.7071 3.29289C13.0976 3.68342 13.0976 4.31658 12.7071 4.70711L7.53553 9.87868C6.84888 10.5653 6.40652 11.0107 6.12345 11.3817C5.85799 11.7296 5.82843 11.8923 5.82843 12C5.82843 12.1077 5.85799 12.2704 6.12345 12.6183Z" fill="white"/>
<path fill-rule="evenodd" clip-rule="evenodd" d="M14.1235 12.6183C14.4065 12.9893 14.8489 13.4347 15.5355 14.1213L20.7071 19.2929C21.0976 19.6834 21.0976 20.3166 20.7071 20.7071C20.3166 21.0976 19.6834 21.0976 19.2929 20.7071L14.1213 15.5355C14.1058 15.52 14.0902 15.5044 14.0748 15.489C13.4479 14.8622 12.9078 14.3221 12.5334 13.8315C12.1322 13.3056 11.8284 12.7208 11.8284 12C11.8284 11.2792 12.1322 10.6944 12.5334 10.1685C12.9078 9.67789 13.4479 9.13781 14.0748 8.51101L19.2929 3.29289C19.6834 2.90237 20.3166 2.90237 20.7071 3.29289C21.0976 3.68342 21.0976 4.31658 20.7071 4.70711L15.5355 9.87868C14.8489 10.5653 14.4065 11.0107 14.1235 11.3817C13.858 11.7296 13.8284 11.8923 13.8284 12C13.8284 12.1077 13.858 12.2704 14.1235 12.6183Z" fill="white"/>
</svg>

<svg width="24" height="24" fill="none" xmlns="http://www.w3.org/2000/svg"><path fill-rule="evenodd" clip-rule="evenodd" d="M6.123 12.618c.284.371.726.817 1.413 1.503l5.171 5.172a1 1 0 0 1-1.414 1.414L6.12 15.536l-.046-.047c-.627-.627-1.167-1.167-1.542-1.658-.4-.525-.705-1.11-.705-1.831 0-.72.304-1.306.705-1.832.375-.49.915-1.03 1.542-1.657l5.218-5.218a1 1 0 1 1 1.414 1.414L7.536 9.88c-.687.686-1.13 1.132-1.413 1.503-.265.348-.295.51-.295.618 0 .108.03.27.295.618z" fill="#fff"/><path fill-rule="evenodd" clip-rule="evenodd" d="M14.123 12.618c.284.371.726.817 1.413 1.503l5.171 5.172a1 1 0 0 1-1.414 1.414l-5.172-5.171-.046-.047c-.627-.627-1.167-1.167-1.542-1.658-.4-.525-.705-1.11-.705-1.831 0-.72.304-1.306.705-1.832.375-.49.915-1.03 1.542-1.657l5.218-5.218a1 1 0 1 1 1.414 1.414L15.536 9.88c-.687.686-1.13 1.132-1.412 1.503-.266.348-.296.51-.296.618 0 .108.03.27.296.618z" fill="#fff"/></svg>
